X: 34
T:Shamrock Reel, The
R:Reel
M:4/4
L:1/8
N:from Micky Doherty who calls it "the oldest tune in Ireland"
N:transcribed by Jamie Gans
K:D
|:(3ABA AF DFAF|G2FE FAdB|(3ABA AF ABdB|AFDFE2DF|
(3ABA AF DFAF|G2FE FAdB|A2AF ABdB|AFDF (3EFE 
D2:|ABde fafd|
gage fafd|ABde fdfg|afdf egd2:|
